public/images/hashed/c502598b26512ec70ccd191a5d438cd0.svg

<?xml version="1.0" encoding="UTF-8"?>
<svg width="80px" height="80px" viewBox="0 0 80 80" version="1.1" xmlns="http://www.w3.org/2000/svg" xmlns:xlink="http://www.w3.org/1999/xlink">
    <!-- Generator: Sketch 64 (93537) - https://sketch.com -->
    <title>Icon-Architecture/64/Arch_Amazon-Lex_64</title>
    <desc>Created with Sketch.</desc>
    <defs>
        <linearGradient x1="0%" y1="100%" x2="100%" y2="0%" id="linearGradient-1">
            <stop stop-color="#055F4E" offset="0%"></stop>
            <stop stop-color="#56C0A7" offset="100%"></stop>
        </linearGradient>
    </defs>
    <g id="Icon-Architecture/64/Arch_Amazon-Lex_64" stroke="none" stroke-width="1" fill="none" fill-rule="evenodd">
        <g id="Icon-Architecture-BG/64/Machine-Learning" fill="url(#linearGradient-1)">
            <rect id="Rectangle" x="0" y="0" width="80" height="80"></rect>
        </g>
        <path d="M47.217,46.0740345 C47.217,46.4338378 47.359,46.772826 47.615,47.0265716 C48.129,47.5370363 49.025,47.5370363 49.538,47.0265716 C49.795,46.772826 49.937,46.4338378 49.937,46.0740345 C49.937,45.7142313 49.795,45.375243 49.538,45.1214975 C49.281,44.8667607 48.94,44.7260112 48.576,44.7260112 C48.213,44.7260112 47.872,44.8667607 47.615,45.1205063 C47.359,45.375243 47.217,45.7142313 47.217,46.0740345 L47.217,46.0740345 Z M46.201,48.4281194 C45.567,47.7997026 45.217,46.9631352 45.217,46.0740345 C45.217,45.1849339 45.567,44.3483664 46.201,43.7189585 C47.469,42.4611338 49.683,42.4611338 50.952,43.7199497 C51.587,44.3483664 51.937,45.1849339 51.937,46.0740345 C51.937,46.9631352 51.587,47.7997026 50.952,48.4291106 C50.318,49.0575274 49.474,49.4034539 48.576,49.4034539 C47.679,49.4034539 46.835,49.0575274 46.201,48.4281194 L46.201,48.4281194 Z M42.297,45.7697381 L42.704,48.3240441 L44.523,48.2497045 C44.809,48.2407838 45.073,48.3448591 45.272,48.5401243 L46.085,49.3489383 C46.282,49.5442034 46.388,49.8118257 46.376,50.0883687 L46.303,51.8943235 L48.879,52.2987305 L49.365,50.5780184 C49.442,50.3094049 49.629,50.0844039 49.882,49.9595136 L50.942,49.4351721 C51.189,49.3122641 51.477,49.2973962 51.736,49.3925508 L53.417,50.0100644 L54.602,47.7065304 L53.097,46.7133544 C52.866,46.5607106 52.709,46.3198506 52.664,46.0472723 L52.477,44.9073996 C52.432,44.632839 52.505,44.3523312 52.679,44.1332774 L53.807,42.7188441 L51.962,40.8910831 L50.538,42.0081583 C50.317,42.180626 50.038,42.2529831 49.755,42.2093706 L48.608,42.0230262 C48.334,41.9784225 48.092,41.8228051 47.938,41.5938394 L46.933,40.1011017 L44.609,41.2736838 L45.232,42.9378979 C45.328,43.1956082 45.313,43.481072 45.189,43.726888 L44.658,44.7755709 C44.531,45.0253517 44.306,45.2107049 44.034,45.2870268 L42.297,45.7697381 Z M40.868,49.5055469 L40.183,45.2087225 C40.103,44.7121345 40.411,44.2363616 40.9,44.0995768 L43.068,43.4959399 L43.205,43.2243529 L42.424,41.1359079 C42.247,40.6640997 42.455,40.1367847 42.907,39.907819 L46.818,37.9343525 C47.273,37.7063779 47.821,37.8491098 48.104,38.2673935 L49.361,40.1357935 L49.643,40.1823796 L51.418,38.7887614 C51.817,38.4755442 52.386,38.5082536 52.746,38.8650833 L55.85,41.9407571 C56.208,42.2956044 56.241,42.861576 55.928,43.2560711 L54.522,45.0194045 L54.569,45.3028859 L56.452,46.5458427 C56.874,46.8243681 57.019,47.3734894 56.788,47.8215089 L54.794,51.6960848 C54.564,52.1450955 54.031,52.3492814 53.556,52.1748313 L51.446,51.4007091 L51.172,51.5365026 L50.565,53.683428 C50.443,54.1165796 50.044,54.4069994 49.603,54.4069994 C49.551,54.4069994 49.498,54.4030346 49.446,54.395105 L45.112,53.714155 C44.611,53.6348595 44.248,53.1967519 44.269,52.6942168 L44.361,50.4412337 L44.166,50.2479509 L41.897,50.3411231 C41.442,50.3579734 40.947,50.0031261 40.868,49.5055469 L40.868,49.5055469 Z M65,35.8151805 L32,35.8062598 L32,56.6124052 L48,56.6213259 C48.515,56.6213259 48.965,56.8027143 49.379,57.1763943 L56,63.4536236 L56,58.6037132 C56,57.4182456 56.804,56.6213259 58,56.6213259 L64.991,56.6213259 L65,35.8151805 Z M67,35.8062598 L67,56.6213259 C67,57.788952 66.178,58.6037132 65,58.6037132 L58.009,58.6037132 L58,64.4259845 C58,65.0504365 57.63,65.6154169 57.057,65.8671801 C56.854,65.9563875 56.638,66 56.423,66 C56.039,66 55.66,65.8592505 55.364,65.5936106 L48.015,58.6255194 L32,58.6037132 C30.804,58.6037132 30,57.8067935 30,56.6213259 L30,35.8062598 C30,34.343258 30.524,33.8238725 32,33.8238725 L65,33.8238725 C66.179,33.8278373 67,34.6425985 67,35.8062598 L67,35.8062598 Z M36,30.8502916 L40,30.8502916 L40,28.8679044 L36,28.8679044 L36,30.8502916 Z M19,30.8502916 L34,30.8502916 L34,28.8679044 L19,28.8679044 L19,30.8502916 Z M32,25.8943235 L43,25.8943235 L43,23.9119363 L32,23.9119363 L32,25.8943235 Z M19,25.8943235 L28,25.8943235 L28,23.9119363 L19,23.9119363 L19,25.8943235 Z M39,20.9383554 L43,20.9383554 L43,18.9559681 L39,18.9559681 L39,20.9383554 Z M19,20.9383554 L37,20.9383554 L37,18.9559681 L19,18.9559681 L19,20.9383554 Z M27.276,37.1057146 L28.725,38.4725706 L22.703,44.7398879 C22.336,45.0659906 21.909,45.2285464 21.496,45.2285464 C21.28,45.2285464 21.069,45.1849339 20.87,45.0967176 C20.334,44.85784 20,44.3364721 20,43.7358088 L20,37.7965766 L16,37.788647 C14.822,37.788647 14,36.9738859 14,35.8062598 L14,15.9823873 C14,14.8147612 14.822,14 16,14 L46,14 C47.215,14 48,14.778087 48,15.9823873 L48,30.8502916 L46,30.8502916 L46,15.9823873 L16.008,15.9823873 L16,35.7983302 L20,35.8062598 C21.178,35.8062598 22,36.6210209 22,37.788647 L22,42.6018833 L27.276,37.1057146 Z" id="Amazon-Lex-Icon_64_Squid" fill="#FFFFFF"></path>
    </g>
</svg>

<svg xmlns="http://www.w3.org/2000/svg" width="80" height="80"><defs><linearGradient id="a" x1="0%" x2="100%" y1="100%" y2="0%"><stop offset="0%" stop-color="#055F4E"/><stop offset="100%" stop-color="#56C0A7"/></linearGradient></defs><g fill="none" fill-rule="evenodd"><path fill="url(#a)" d="M0 0h80v80H0z"/><path fill="#FFF" d="M47.217 46.074c0 .36.142.699.398.953.514.51 1.41.51 1.923 0a1.33 1.33 0 0 0 .399-.953 1.357 1.357 0 0 0-1.361-1.348c-.363 0-.704.14-.961.395a1.338 1.338 0 0 0-.398.953Zm-1.016 2.354a3.294 3.294 0 0 1-.984-2.354c0-.89.35-1.726.984-2.355 1.268-1.258 3.482-1.258 4.751 0 .635.63.985 1.466.985 2.355 0 .89-.35 1.726-.985 2.355a3.353 3.353 0 0 1-2.376.974 3.35 3.35 0 0 1-2.375-.975Zm-3.904-2.658.407 2.554 1.819-.074c.286-.01.55.095.749.29l.813.809a.98.98 0 0 1 .291.74l-.073 1.805 2.576.405.486-1.721a.996.996 0 0 1 .517-.618l1.06-.525c.247-.123.535-.138.794-.042l1.681.617 1.185-2.303-1.505-.994a.992.992 0 0 1-.433-.666l-.187-1.14a.987.987 0 0 1 .202-.774l1.128-1.414-1.845-1.828-1.424 1.117c-.221.173-.5.245-.783.201l-1.147-.186a1 1 0 0 1-.67-.43l-1.005-1.492-2.324 1.173.623 1.664a.986.986 0 0 1-.043.789l-.531 1.049c-.127.25-.352.435-.624.511l-1.737.483Zm-1.429 3.736-.685-4.297a.99.99 0 0 1 .717-1.11l2.168-.603.137-.272-.781-2.088a.987.987 0 0 1 .483-1.228l3.911-1.974a1.005 1.005 0 0 1 1.286.333l1.257 1.869.282.046 1.775-1.393c.399-.313.968-.28 1.328.076l3.104 3.076c.358.355.391.92.078 1.315l-1.406 1.763.047.284 1.883 1.243a.986.986 0 0 1 .336 1.276l-1.994 3.874c-.23.45-.763.653-1.238.479l-2.11-.774-.274.136-.607 2.146a.999.999 0 0 1-1.119.712l-4.334-.68a.995.995 0 0 1-.843-1.02l.092-2.254-.195-.193-2.269.093c-.455.017-.95-.338-1.029-.835ZM65 35.816l-33-.01v20.806l16 .01c.515 0 .965.18 1.379.554L56 63.454v-4.85c0-1.186.804-1.983 2-1.983h6.991L65 35.815Zm2-.01v20.815c0 1.168-.822 1.983-2 1.983h-6.991L58 64.426A1.575 1.575 0 0 1 56.423 66c-.384 0-.763-.14-1.059-.406l-7.349-6.968L32 58.604c-1.196 0-2-.797-2-1.983V35.806c0-1.463.524-1.982 2-1.982h33c1.179.004 2 .819 2 1.982ZM36 30.85h4v-1.982h-4v1.982Zm-17 0h15v-1.982H19v1.982Zm13-4.956h11v-1.982H32v1.982Zm-13 0h9v-1.982h-9v1.982Zm20-4.956h4v-1.982h-4v1.982Zm-20 0h18v-1.982H19v1.982Zm8.276 16.168 1.449 1.367-6.022 6.267c-.367.326-.794.489-1.207.489-.216 0-.427-.044-.626-.132a1.466 1.466 0 0 1-.87-1.361v-5.94l-4-.007c-1.178 0-2-.815-2-1.983V15.982c0-1.167.822-1.982 2-1.982h30c1.215 0 2 .778 2 1.982V30.85h-2V15.982H16.008L16 35.798l4 .008c1.178 0 2 .815 2 1.983v4.813l5.276-5.496Z"/></g></svg>
